swiss/communes/0293.svg

<?xml version="1.0" encoding="UTF-8" standalone="no"?>
<!-- Created with Inkscape (http://www.inkscape.org/) -->
<svg
   xmlns:svg="http://www.w3.org/2000/svg"
   xmlns="http://www.w3.org/2000/svg"
   version="1.0"
   width="231.42986"
   height="271.08408"
   id="svg2780">
  <defs
     id="defs2782" />
  <g
     transform="translate(-9.719529,-806.78789)"
     id="layer1">
    <path
       d="M 10.719529,807.78789 L 14.890977,983.00541 C 17.870575,1108.1608 232.99833,1108.1608 235.97795,983.00541 L 240.14938,807.78789 L 10.719529,807.78789 z"
       id="path3282"
       style="fill:#d4381a;fill-opacity:1;fill-rule:evenodd;stroke:#000000;stroke-width:2;stroke-linecap:butt;stroke-miterlimit:4;stroke-dashoffset:0;stroke-opacity:1" />
    <path
       d="M 125.43446,855.85192 C 123.68893,870.33321 85.172923,912.98562 66.830483,927.51835 C 82.999773,949.82512 96.496943,985.0283 101.22797,1020.2696 L 79.131013,1022.2395 C 73.051563,990.15641 59.532363,953.68721 38.015153,923.8456 C 78.966403,894.359 103.72008,862.23596 125.43446,820.30782 C 147.14884,862.23596 171.90251,894.359 212.85376,923.8456 C 191.33655,953.68721 177.81735,990.15641 171.7379,1022.2395 L 149.64094,1020.2696 C 154.37197,985.0283 167.86914,949.82512 184.03843,927.51835 C 165.69599,912.98562 127.17999,870.33321 125.43446,855.85192 z"
       id="path4289"
       style="opacity:1;fill:#ffef08;fill-opacity:1;fill-rule:evenodd;stroke:#000000;stroke-width:1.00000012px;stroke-linecap:butt;stroke-linejoin:miter;marker:none;marker-start:none;marker-mid:none;marker-end:none;stroke-miterlimit:4;stroke-dasharray:none;stroke-dashoffset:0;stroke-opacity:1;visibility:visible;display:inline;overflow:visible;enable-background:accumulate" />
    <rect
       width="106.98478"
       height="19.666082"
       x="71.942062"
       y="1014.9796"
       id="rect4805"
       style="opacity:1;fill:#ffef08;fill-opacity:1;fill-rule:evenodd;stroke:#000000;stroke-width:1.00000012px;stroke-linecap:butt;stroke-linejoin:miter;marker:none;marker-start:none;marker-mid:none;marker-end:none;stroke-miterlimit:4;stroke-dasharray:none;stroke-dashoffset:0;stroke-opacity:1;visibility:visible;display:inline;overflow:visible;enable-background:accumulate" />
    <path
       d="M 125.43445,836.16665 C 117.6643,849.27222 120.33391,888.33466 116.50976,982.57741 C 116.00935,994.90963 109.28877,1009.238 101.62948,1014.9796 L 101.62948,1038.2555 L 149.23942,1038.2555 L 149.23942,1014.9796 C 141.58013,1009.238 134.85955,994.90963 134.35914,982.57741 C 130.53499,888.33466 133.2046,849.27222 125.43445,836.16665 z"
       id="rect4807"
       style="fill:#ffef08;fill-opacity:1;fill-rule:evenodd;stroke:#000000;stroke-width:1.00000012px;stroke-linecap:butt;stroke-linejoin:miter;marker:none;marker-start:none;marker-mid:none;marker-end:none;stroke-miterlimit:4;stroke-dashoffset:0;stroke-opacity:1;visibility:visible;display:inline;overflow:visible;enable-background:accumulate" />
  </g>
</svg>

<svg xmlns="http://www.w3.org/2000/svg" version="1.0" width="231.43" height="271.084"><path d="m10.72 807.788 4.171 175.217c2.98 125.156 218.107 125.156 221.087 0l4.171-175.217H10.72z" style="fill:#d4381a;fill-opacity:1;fill-rule:evenodd;stroke:#000;stroke-width:2;stroke-linecap:butt;stroke-miterlimit:4;stroke-dashoffset:0;stroke-opacity:1" transform="translate(-9.72 -806.788)"/><path d="M125.434 855.852c-1.745 14.481-40.261 57.134-58.604 71.666 16.17 22.307 29.667 57.51 34.398 92.752l-22.097 1.97c-6.08-32.084-19.599-68.553-41.116-98.394 40.951-29.487 65.705-61.61 87.42-103.538 21.714 41.928 46.468 74.051 87.419 103.538-21.517 29.841-35.037 66.31-41.116 98.394l-22.097-1.97c4.731-35.242 18.228-70.445 34.397-92.752-18.342-14.532-56.858-57.185-58.604-71.666z" style="opacity:1;fill:#ffef08;fill-opacity:1;fill-rule:evenodd;stroke:#000;stroke-width:1.00000012px;stroke-linecap:butt;stroke-linejoin:miter;marker:none;marker-start:none;marker-mid:none;marker-end:none;stroke-miterlimit:4;stroke-dasharray:none;stroke-dashoffset:0;stroke-opacity:1;visibility:visible;display:inline;overflow:visible;enable-background:accumulate" transform="translate(-9.72 -806.788)"/><path style="opacity:1;fill:#ffef08;fill-opacity:1;fill-rule:evenodd;stroke:#000;stroke-width:1.00000012px;stroke-linecap:butt;stroke-linejoin:miter;marker:none;marker-start:none;marker-mid:none;marker-end:none;stroke-miterlimit:4;stroke-dasharray:none;stroke-dashoffset:0;stroke-opacity:1;visibility:visible;display:inline;overflow:visible;enable-background:accumulate" d="M71.942 1014.98h106.985v19.666H71.942z" transform="translate(-9.72 -806.788)"/><path d="M125.434 836.167c-7.77 13.105-5.1 52.168-8.924 146.41-.5 12.333-7.221 26.661-14.88 32.403v23.275h47.61v-23.275c-7.66-5.742-14.38-20.07-14.88-32.403-3.825-94.242-1.155-133.305-8.926-146.41z" style="fill:#ffef08;fill-opacity:1;fill-rule:evenodd;stroke:#000;stroke-width:1.00000012px;stroke-linecap:butt;stroke-linejoin:miter;marker:none;marker-start:none;marker-mid:none;marker-end:none;stroke-miterlimit:4;stroke-dashoffset:0;stroke-opacity:1;visibility:visible;display:inline;overflow:visible;enable-background:accumulate" transform="translate(-9.72 -806.788)"/></svg>
